X:181
T:Wildboar's Maggot. JJo8.181
B:J.Johnson Choice Collection Vol 8 1758
Z:vmp.Simon Wilson 2013 www.village-music-project.org.uk
M:C|
L:1/8
Q:1/2=80
K:Bb
|:FE|DFB2-Bdfd|"^tr"c>B"^tr"c>dc2de|f3g "^tr"fd"^tr"cB|ABcdc2FE|
DFB2-Bdfd|=efgab2ag|af=egc2fe|"^tr"f2F2F2:|
|:cB|ABcde2dc|gecfA2d^f|g3a bg^fb|d2gab2ag|
f2ed gecf|dBGcA2ga|bfceG2BA|"^tr"B2B,2B,2:|
